X:1
T:Royal Oak, 76.76 refrain
T:Royal Oak, 76.76 refrain
T:17th Century English tune, arr. by Martin Shaw
T:Public Domain Courtesy of the Cyber Hymnal™
C:17th Century English tune, arr. by Martin Shaw
Z:Public Domain
Z:Courtesy of the Cyber Hymnal™
%%score ( 1 2 ) ( 3 4 )
L:1/8
Q:1/4=115
M:4/4
K:G
V:1 treble 
V:2 treble 
V:3 bass 
V:4 bass 
V:1
 d2 B2 [Cc]2 [DB]2 | (AG) (FE) D2 B2 | c2 E2 F2 (EF) | G8 | d2 B2 [Cc]2 [DB]2 | (AG) (FE) D2 B2 | %6
 c2 E2 F2 (EF) | [B,G]6 D2 | B,2 D2 D2 (CB,) | C2 E4 C2 | (EG) [EA]2 (FG) [DA]2 | D6 (GA) | %12
 B2 A2 G2 (AB) | c3 B2 [FA]2 (Bc) | [Dd]2 E2 F2 (EF) x2 | G8 |] %16
V:2
 D4 x4 | E2 C2 x4 | C4 A,4 | (B,6 C2) | D4 x4 | E2 C2 x4 | C4 A,4 | x6 D2 | B,2 D2 D2 x2 | C2 x6 | %10
 D2 x D2 x3 | (D2 C2 B,2) D2 | D6 F2 | (E2 x D2) x4 | x2 E2 A,4 x2 | (B,6 C2) |] %16
V:3
 G,4 [A,,F,]2 [G,,G,]2 | [C,E,]2 (A,F,) [B,,G,]2 x2 | G,4 D,,2 x2 | ([G,,G,]2 D,2 G,2 A,2) | %4
 [G,B,]2 G,2 G,4 | [C,E,]2 (A,F,) [B,,G,]2 x2 | G,4 D,,2 x2 | (G,,2 D,2 G,2) D,2 | %8
 G,,2 G,2 =F,2 G,2 | E,2 (G,2 A,,4) | A,2 G,2 A,2 [C,F,]2 | G,6 C2 | B,6 (F,G,) | A,3 F,2 x4 | %14
 G,4 C,2 D,2 D,,2 | G,2 D,2 G,,4 |] %16
V:4
 B,,2 G,,2 x4 | x2 A,,2 G,2- x2 | E,2 C,2 D,2 x2 | x8 | x2 F,2 E,2 D,2 | x2 A,,2 G,2- x2 | %6
 E,2 C,2 D,2 x2 | x6 D,2 | G,,2 G,2 =F,2 G,2 | C,4 x4 | D,6 x2 | B,,2 A,,2 G,,2 (E,F,) | %12
 G,2 F,2 E,2 D,2 | (C,2 A,,2) D,2 C,2 x | B,,2 x8 | (G,2 D,2 G,,4) |] %16

